_includes/icons/ios-donate.svg

<svg fill="#666" height="50" viewBox="0 0 50 50" width="50" xmlns="http://www.w3.org/2000/svg"><path d="m30.59375.09375c-.15625.015625-.304687.070313-.4375.15625-.335937.214844-1.65625.804688-3.28125 1.40625-1.625.601563-3.625 1.289063-5.59375 1.96875-1.96875.679688-3.921875 1.359375-5.46875 1.9375-.773437.289063-1.429687.546875-1.96875.78125-.539062.234375-.902344.367188-1.28125.6875-.507812.429688-1.042969 1.121094-1.75 2.0625s-1.511719 2.085938-2.28125 3.28125c-.769531 1.195313-1.511719 2.4375-2.0625 3.53125s-.96875 1.953125-.96875 2.90625c0 .398438.074219.496094.15625.8125s.199219.71875.34375 1.1875c.292969.9375.6875 2.164063 1.1875 3.5.929688 2.480469 2.136719 5.347656 3.4375 7.59375-1.671875 1.910156-2.625 4.382813-2.625 7.09375 0 6.046875 4.953125 11 11 11s11-4.953125 11-11c0-2.960937-1.15625-5.691406-3.0625-7.65625.839844-.378906 2.109375-.835937 3.59375-1.46875 2.089844-.890625 4.585938-2.210937 6.8125-4.59375 2.28125-2.449219 3.332031-5.980469 4.4375-9.1875s2.28125-6.046875 4.09375-7.28125c.410156-.289062.542969-.835937.3125-1.28125-1.40625-2.695312-4.46875-4.429687-7.53125-5.625-3.0625-1.195312-6.128906-1.8125-7.96875-1.8125-.03125 0-.0625 0-.09375 0zm.25 2.03125c1.410156.027344 4.328125.546875 7.09375 1.625 2.554688.996094 4.789063 2.511719 5.96875 4.1875-1.980469 1.851563-3.015625 4.652344-4 7.5-1.117187 3.242188-2.210937 6.515625-4.03125 8.46875-1.976562 2.117188-4.167969 3.289063-6.125 4.125-1.941406.828125-3.628906 1.226563-4.84375 2.15625-.011719.007813-.019531.023438-.03125.03125-1.0625.789063-2.34375 2.03125-3.78125 3.09375-1.453125 1.070313-3.019531 1.875-4.40625 1.875-1.558594 0-3.359375-1.414062-3.5-2.875-.097656-1.097656.328125-2.121094 1.09375-3.125s1.871094-1.945312 3.03125-2.71875c2.320313-1.546875 4.75-2.4375 4.75-2.4375.175781-.070312.328125-.191406.4375-.34375 0 0 1.011719-1.394531 2.1875-2.90625.589844-.753906 1.230469-1.539062 1.78125-2.1875.550781-.648437 1.082031-1.183594 1.25-1.3125.371094-.292969.480469-.808594.269531-1.230469-.210937-.421875-.6875-.636718-1.144531-.519531 0 0-1.289062.335938-2.875.40625-1.585937.070313-3.351562-.203125-4.1875-.96875-.230469-.210937-.542969-.300781-.851562-.246094-.304688.054688-.570313.25-.710938.527344 0 0-1.980469 3.5-4.625 4.0625-.339844.066406-.621094.308594-.742187.632813-.121094.324218-.0625.6875.148437.960937 0 0 .820313 1.019531 1 3.28125.015625.21875.101563.429688.25.59375 0 0 .1875.203125.40625.5.167969.230469.292969.429688.375.59375-.824219.652344-1.703125 1.253906-2.34375 2.09375-.367187.480469-.625 1.039063-.875 1.59375-.980469-1.890625-2.003906-3.945312-2.75-5.9375-.488281-1.300781-.878906-2.511719-1.15625-3.40625-.140625-.449219-.242187-.824219-.3125-1.09375-.042969-.164062-.050781-.320312-.0625-.375.023438-.167969.242188-.992187.71875-1.9375.503906-.996094 1.226563-2.1875 1.96875-3.34375.742188-1.15625 1.515625-2.292969 2.1875-3.1875s1.296875-1.601562 1.4375-1.71875c-.054687.046875.296875-.195312.78125-.40625.484375-.210937 1.152344-.4375 1.90625-.71875 1.511719-.5625 3.4375-1.257812 5.40625-1.9375 1.96875-.679687 3.964844-1.355469 5.625-1.96875 1.472656-.546875 2.507813-.972656 3.28125-1.40625zm-11.375 14.8125c1.445313.792969 3.09375 1.066406 4.5625 1 .257813-.011719.230469-.042969.46875-.0625-.457031.550781-.921875 1.109375-1.375 1.6875-1.105469 1.417969-1.886719 2.523438-2.03125 2.71875-.347656.132813-2.308594.925781-4.53125 2.34375-.105469-.160156-.179687-.390625-.28125-.53125-.199219-.269531-.285156-.363281-.375-.46875-.15625-1.226562-.417969-2.222656-.71875-2.875 2.507813-1.085937 3.78125-2.917969 4.28125-3.8125zm5.78125 15.5625c1.695313 1.613281 2.75 3.929688 2.75 6.5 0 4.953125-4.046875 9-9 9s-9-4.046875-9-9c0-1.945312.589844-3.714844 1.625-5.15625.816406 2.003906 2.886719 3.34375 5.0625 3.34375 2.113281 0 3.996094-1.070312 5.59375-2.25 1.1875-.875 2.15625-1.75 2.96875-2.4375z"/></svg>

<svg xmlns="http://www.w3.org/2000/svg" viewBox="0 0 50 50" width="50" height="50" fill="#666"><path d="M 30.59375 0.09375 C 30.4375 0.109375 30.289063 0.164063 30.15625 0.25 C 29.820313 0.464844 28.5 1.054688 26.875 1.65625 C 25.25 2.257813 23.25 2.945313 21.28125 3.625 C 19.3125 4.304688 17.359375 4.984375 15.8125 5.5625 C 15.039063 5.851563 14.382813 6.109375 13.84375 6.34375 C 13.304688 6.578125 12.941406 6.710938 12.5625 7.03125 C 12.054688 7.460938 11.519531 8.152344 10.8125 9.09375 C 10.105469 10.035156 9.300781 11.179688 8.53125 12.375 C 7.761719 13.570313 7.019531 14.8125 6.46875 15.90625 C 5.917969 17 5.5 17.859375 5.5 18.8125 C 5.5 19.210938 5.574219 19.308594 5.65625 19.625 C 5.738281 19.941406 5.855469 20.34375 6 20.8125 C 6.292969 21.75 6.6875 22.976563 7.1875 24.3125 C 8.117188 26.792969 9.324219 29.660156 10.625 31.90625 C 8.953125 33.816406 8 36.289063 8 39 C 8 45.046875 12.953125 50 19 50 C 25.046875 50 30 45.046875 30 39 C 30 36.039063 28.84375 33.308594 26.9375 31.34375 C 27.777344 30.964844 29.046875 30.507813 30.53125 29.875 C 32.621094 28.984375 35.117188 27.664063 37.34375 25.28125 C 39.625 22.832031 40.675781 19.300781 41.78125 16.09375 C 42.886719 12.886719 44.0625 10.046875 45.875 8.8125 C 46.285156 8.523438 46.417969 7.976563 46.1875 7.53125 C 44.78125 4.835938 41.71875 3.101563 38.65625 1.90625 C 35.59375 0.710938 32.527344 0.09375 30.6875 0.09375 C 30.65625 0.09375 30.625 0.09375 30.59375 0.09375 Z M 30.84375 2.125 C 32.253906 2.152344 35.171875 2.671875 37.9375 3.75 C 40.492188 4.746094 42.726563 6.261719 43.90625 7.9375 C 41.925781 9.789063 40.890625 12.589844 39.90625 15.4375 C 38.789063 18.679688 37.695313 21.953125 35.875 23.90625 C 33.898438 26.023438 31.707031 27.195313 29.75 28.03125 C 27.808594 28.859375 26.121094 29.257813 24.90625 30.1875 C 24.894531 30.195313 24.886719 30.210938 24.875 30.21875 C 23.8125 31.007813 22.53125 32.25 21.09375 33.3125 C 19.640625 34.382813 18.074219 35.1875 16.6875 35.1875 C 15.128906 35.1875 13.328125 33.773438 13.1875 32.3125 C 13.089844 31.214844 13.515625 30.191406 14.28125 29.1875 C 15.046875 28.183594 16.152344 27.242188 17.3125 26.46875 C 19.632813 24.921875 22.0625 24.03125 22.0625 24.03125 C 22.238281 23.960938 22.390625 23.839844 22.5 23.6875 C 22.5 23.6875 23.511719 22.292969 24.6875 20.78125 C 25.277344 20.027344 25.917969 19.242188 26.46875 18.59375 C 27.019531 17.945313 27.550781 17.410156 27.71875 17.28125 C 28.089844 16.988281 28.199219 16.472656 27.988281 16.050781 C 27.777344 15.628906 27.300781 15.414063 26.84375 15.53125 C 26.84375 15.53125 25.554688 15.867188 23.96875 15.9375 C 22.382813 16.007813 20.617188 15.734375 19.78125 14.96875 C 19.550781 14.757813 19.238281 14.667969 18.929688 14.722656 C 18.625 14.777344 18.359375 14.972656 18.21875 15.25 C 18.21875 15.25 16.238281 18.75 13.59375 19.3125 C 13.253906 19.378906 12.972656 19.621094 12.851563 19.945313 C 12.730469 20.269531 12.789063 20.632813 13 20.90625 C 13 20.90625 13.820313 21.925781 14 24.1875 C 14.015625 24.40625 14.101563 24.617188 14.25 24.78125 C 14.25 24.78125 14.4375 24.984375 14.65625 25.28125 C 14.824219 25.511719 14.949219 25.710938 15.03125 25.875 C 14.207031 26.527344 13.328125 27.128906 12.6875 27.96875 C 12.320313 28.449219 12.0625 29.007813 11.8125 29.5625 C 10.832031 27.671875 9.808594 25.617188 9.0625 23.625 C 8.574219 22.324219 8.183594 21.113281 7.90625 20.21875 C 7.765625 19.769531 7.664063 19.394531 7.59375 19.125 C 7.550781 18.960938 7.542969 18.804688 7.53125 18.75 C 7.554688 18.582031 7.773438 17.757813 8.25 16.8125 C 8.753906 15.816406 9.476563 14.625 10.21875 13.46875 C 10.960938 12.3125 11.734375 11.175781 12.40625 10.28125 C 13.078125 9.386719 13.703125 8.679688 13.84375 8.5625 C 13.789063 8.609375 14.140625 8.367188 14.625 8.15625 C 15.109375 7.945313 15.777344 7.71875 16.53125 7.4375 C 18.042969 6.875 19.96875 6.179688 21.9375 5.5 C 23.90625 4.820313 25.902344 4.144531 27.5625 3.53125 C 29.035156 2.984375 30.070313 2.558594 30.84375 2.125 Z M 19.46875 16.9375 C 20.914063 17.730469 22.5625 18.003906 24.03125 17.9375 C 24.289063 17.925781 24.261719 17.894531 24.5 17.875 C 24.042969 18.425781 23.578125 18.984375 23.125 19.5625 C 22.019531 20.980469 21.238281 22.085938 21.09375 22.28125 C 20.746094 22.414063 18.785156 23.207031 16.5625 24.625 C 16.457031 24.464844 16.382813 24.234375 16.28125 24.09375 C 16.082031 23.824219 15.996094 23.730469 15.90625 23.625 C 15.75 22.398438 15.488281 21.402344 15.1875 20.75 C 17.695313 19.664063 18.96875 17.832031 19.46875 16.9375 Z M 25.25 32.5 C 26.945313 34.113281 28 36.429688 28 39 C 28 43.953125 23.953125 48 19 48 C 14.046875 48 10 43.953125 10 39 C 10 37.054688 10.589844 35.285156 11.625 33.84375 C 12.441406 35.847656 14.511719 37.1875 16.6875 37.1875 C 18.800781 37.1875 20.683594 36.117188 22.28125 34.9375 C 23.46875 34.0625 24.4375 33.1875 25.25 32.5 Z"/></svg>
